X:1
T:Round the Bay of Mexico
M:4/4
L:1/4
K:E
 B,| E F G A| B/2 A3/2 G2| B2 e2| c3/2 c/2B/2 B3/2| c c B G/2G/2| A/2G/2 F/2E/2 G F|\
 z/2 E F/2 G A| G F E||
